X:1
T:S'io fossi un giorno
T:S'io fossi un giorno
T:Domenico Obizzi
T:Madrigal
T:Source : Madrigali et arie a voce sola---Libro I ---Venetia---A.Vincenti---1627. Editor : André Vierendeels (21/02/16).
T:Notes : Original clefs : C1, F4 Editorial accidentals above the staff m 15 in BC, 2x"c" notated as 2x"d" in original print
T:©
T:©
T:©
T:©
C:Domenico Obizzi
Z:©
%%score 1 2
L:1/8
Q:1/4=120
M:4/4
K:C
V:1 treble nm="Soprano" snm="S"
V:2 bass nm="BC" snm="BC"
V:1
 z2 D2 A3 A | A2 G2 A4 | A4 z2 A2 | d3 d d2 ^c2 | d4 d4 | z2 A2 A3 G | A4 z AFE | F2 F2 z2 E2 | %8
w: S'io fos- si'un|gior- no'ar- di-|to, s'io|fos- si'un gior- no'ar-|di- to,|di di- re'al-|men que- ste due|vo- ci, io|
 E4 D4 | z2 D2 A3 A | A3 G A2 AA | B^c d4 A2- | A2 AG A4 | A4 z2 c2- | c2 cB c2 c2 | z2 A2 D4 | %16
w: mo- ro,|s'io fos- si'un|gior- no'ar- r- di- to,|di- re'al- men que-|* ste due vo-|ci, que-|* ste due vo- ci,|io mo-|
 C4 z2 eB | c2 dc B4 | A2 AE F2 GF | E4 D2 D2- | D2 E4 ^F2 | G2 A2 A4 | G2 d2 cBAG | AGFE D4 | %24
w: ro, al- la|bel- la ch'a- do-|ro, al do- lor in- fi-|ni- to, che|_ mi tor-|men- ta'il co-|re, for- se da- reb- be|fin pie- to- so'A- mo-|
 C2 G2 EFGA | B2 d2 Bcde | f2 dc _BA GF | E4 D4 | F4 z2 AB |"^-natural" c2 c2 c2 B2- | c4 z2 EF | %31
w: re, for- se da- reb- be|fin, for- se da- reb- be|fin, pie- * to- * so'A- *|mo- re,|ma per- ch'ho'il|fo- co'in se- no;|_ per- ch'ho'il|
 G3 A A4 | G3 G G>A GA/B/ | c>B A/G/F/E/ D2 C2 | D4 C4 | G2 G4 ^F2 | G2 GF E4 | D4 A2 A2- | %38
w: fo- co'in se-|no in hoc- * * * *|* * * * * * * ca'il|giac- cio,|io mo- ro|_ per- che tac-|cio, io mo-|
 A2 G2 z2 _BF | E4 D4 | A4 c3 e | A4 ABcd | d4 c3 c | c>d cd/e/ A>B AB/c/ | F>G FG/A/ D2 E2 | %45
w: * ro per- che|tac- cio,|ma, ma per-|che, per- ch'ho'il fo- co'in|se- no, in|hoc- * * * * * * * * *|* * * * * * ca'il|
 E4 D4 | A2 d4 ^c2 | d2 f4 e2 | z2 d4 c2 | z2 A4 G2 | z2 F4 E2 | E4 !fermata!D4 |] %52
w: giac- cio,|io mo- ro,|io mo- ro,|mo- ro,|mo- ro,|per- che|tac- cio.|
V:2
 D,8 | D,8 | D,8 | D,8 | D,8 | D,4 _B,,4 | A,,4 A,,4 | A,,4 G,,4 | A,,4 D,4 | D,8 | D,8 | D,8 | %12
 _B,,4 A,,4 | A,,4 F,,4 | C,4 C,4 | F,,4 G,,4 | C,4 C2 ^G,2 | A,2 F,2 D,2 E,2 | A,,4 D,2 G,,2 | %19
 A,,4 D,2 B,,2 | C,4 D,4 | E,2 C,2 D,4 | G,,2 G,2 E,4 | F,4 G,4 |"^b" C,4 C,2 B,,A,, | %25
 G,,4 G,2 F,E, | D,4 G,,4 | A,,4 D,4 | _B,,4 z2 A,,G,, | F,,4 G,,4 | C,4 C,4 | B,,2 C,2 D,4 | %32
 G,2 F,2 E,2 D,2 | C,2 F,,2 G,,2 A,,2 | G,,4 C,4 | C,3 B,, A,,4 | G,,4 A,,4 | D,4 D,4 | %38
 _B,,4 A,,2 G,,2 | A,,4 D,4 | D,4 E,4 | F,4 F,2 A,2 | G,4 C2 B,2 | A,2 G,2 F,2 E,2 | %44
 D,2 C,2 _B,,2 G,,2 | A,,4 D,4 | D,4 A,4 | D,4 A,,4 | D,4 E,4 | F,4 ^C,4 | D,4 G,,4 | %51
 A,,4 !fermata!D,4 |] %52

